!!!COM: Gabriel Faure/
!!!CNT: Francais
!!!TXO: Francais
!!!OTL: Le Papillon et la Fleur
!!!OPS: Op. 1
!!!ONM: No. 1
!!!LYR: Victor Hugo
!!!ENC: Jacob Pegg
!!!YOR: Album of Twenty Songs (Vingt Me/lodies,) Volume I
!!!YOR: Edward B. Marks Music Corporation, RCA Building, Radio
!!!YOR: City, New York 20, N.Y.
!!!ODT: 1861/
!!NB: Vocal melody and text only encoded.
!!NB: First instance of melodic material only encoded.
**kern	**silbe
*clef G2	*
*k[f#c#]	*
*M6/8	*
*MM[allegretto]	*
!!created: 8/19/03 18:07
!!proofed and posted: 8/19/03 20:46
!! time: 21 min.
=10	=10
8r	.
{8f#	{La
8f#	pau-
8f#	-vre
8e#	fleur
8f#	di-
=11	=11
8a	-sait
8g	au
8f#	pa-
8en	-pil-
8.f#	-lon
16en	ce/-
=12	=12
4e	-les-
8d}	-te:}
8r	.
{8.b	{Ne
16cc#	fuis
=13	=13
(4.b	pas!...
8a)}	|}
8r	.
8r	.
=14	=14
8r	.
{8f#	{Vois
8f#	com-
8f#	-me
8e#	nos
8f#	des-
=15	=15
8a	-tins
8g	sont
8f#	diff-
8en	-e/r-
8f#}	-ents,}
16r	.
{16c#	{je
=16	=16
4e	res-
8d	-te
8r	.
8cc#	Tu
8dd	t'en
=17	=17
(4.ee	vas
8a)}	|}
8r	.
8r	.
=18	=18
8r	.
{8ff#	{Pour-
8ee	-tant
8dd	nous
8cc#	nous
8ee	ai-
=19	=19
8dd	-mons,
8cc#	nous
8b	vi-
8a#	-vons
8.b	sans
16cc#	les
=20	=20
4cc#	hom-
8b}	-mes,}
8r	.
{8f#	{Et
8a	loin
=21	=21
4.g}	d'eux!}
4r	.
8r	.
=22	=22
8r	.
{8ee	{Et
8ff#	nous
8gg	nous
8ff#	res-
8ee	-sem-
=23	=23
8dd	-blons
8cc#	et
8dd	l'on
8ee	dit
8.dd	que
16b	nous
=24	=24
4b	som-
8a}	-mes
8r	.
{8.ee	Fleurs
16dd	tous
=25	=25
4dd}	deux!}
8r	.
4r	.
8r	.
*-	*-
